remix/Logos/mini-program-line.svg

<svg viewBox="0 0 24 24" fill="currentColor" xmlns="http://www.w3.org/2000/svg"><path d="M12.001 22C6.47813 22 2.00098 17.5228 2.00098 12C2.00098 6.47715 6.47813 2 12.001 2C17.5238 2 22.001 6.47715 22.001 12C22.001 17.5228 17.5238 22 12.001 22ZM12.001 20C16.4193 20 20.001 16.4183 20.001 12C20.001 7.58172 16.4193 4 12.001 4C7.5827 4 4.00098 7.58172 4.00098 12C4.00098 16.4183 7.5827 20 12.001 20ZM13.001 14C13.001 15.9332 11.434 17.5002 9.50098 17.5002C7.56798 17.5002 6.00098 15.9332 6.00098 14.0002C6.00098 12.6262 6.80048 11.3965 8.02405 10.8265C8.52467 10.5932 9.11958 10.81 9.35282 11.3106C9.58607 11.8112 9.36932 12.4061 8.86871 12.6393C8.34353 12.884 8.00098 13.4109 8.00098 14.0002C8.00098 14.8287 8.67255 15.5002 9.50098 15.5002C10.3294 15.5002 11.001 14.8287 11.001 14.0002V10C11.001 8.067 12.568 6.5 14.501 6.5C16.434 6.5 18.001 8.067 18.001 10C18.001 11.3741 17.2015 12.6037 15.9779 13.1738C15.4773 13.407 14.8824 13.1903 14.6491 12.6897C14.4159 12.189 14.6326 11.5941 15.1332 11.3609C15.6584 11.1162 16.001 10.5894 16.001 10C16.001 9.17157 15.3294 8.5 14.501 8.5C13.6725 8.5 13.001 9.17157 13.001 10V14Z"/></svg>

<svg viewBox="0 0 24 24" xmlns="http://www.w3.org/2000/svg"><path fill="none" d="M0 0h24v24H0Z"/><path d="M12 22C6.477 22 2 17.523 2 12 2 6.477 6.477 2 12 2c5.523 0 10 4.477 10 10s-4.477 10-10 10Zm0-2v0c4.41 0 8-3.59 8-8 0-4.42-3.59-8-8-8v0c-4.42 0-8 3.58-8 8 0 4.41 3.58 8 8 8Zm1-6v0c-.01 1.93-1.57 3.49-3.51 3.49 -1.94-.01-3.5-1.57-3.5-3.51 0-1.37.78-2.6 2.02-3.18v0c.5-.24 1.09-.02 1.32.48 .23.5.01 1.09-.484 1.32v0c-.76.34-1.08 1.24-.73 1.99 .34.75 1.24 1.07 1.99.72 .52-.25.86-.78.86-1.36v-4 0c0-1.94 1.56-3.5 3.5-3.5 1.93 0 3.49 1.56 3.49 3.5 -.01 1.36-.79 2.59-2.03 3.17v0c-.51.23-1.1.01-1.33-.49 -.24-.51-.02-1.1.48-1.33v0c.75-.35 1.07-1.25.72-2 -.35-.76-1.25-1.08-2-.73 -.53.24-.87.77-.87 1.35v4Z"/></svg>
